X: 3
T: The Tongs By The Fire
R: jig
M: 6/8
L: 1/8
K: Gmaj
|:GBd cAF|Gge dBG|cec BdB|ABG FED|
GBd cAF|Gge dBG|cec Bdg|1fef g3:|2fef g2d||
|:gdB gdB|gfa gdB|g3 eag|fdd def|
gc/a/g fc/a/f|ec/a/e def|gdB AGA|1BGG GBd:|2BGG G2D||


Tune 1569	Setting 1569

